X:1
T:De gli amanti
T:De gli amanti
T:Ludovico Bellanda Veronese
T:Source : Musischi di L.Bellanda---Venetia---G.Vincenti---1607. Editor : André Vierendeels (05/07/15).
T:Notes : Original clefs : C4, F4 Figures in BC are notated in original print Lyrics by Alberto Fabriani
C:Ludovico Bellanda Veronese
%%score 1 2
L:1/8
Q:1/4=120
M:4/4
K:C
V:1 treble-8 nm="Tenor" snm="T"
V:2 bass nm="BC" snm="BC"
V:1
 A6 A2 | A4 A2 A2 | A>B c2 A4 | _B>c d4 BA | A3 D DEFG | E4 D4 | z2 A2 c4- | c2 B4 A2- | A2 G2 G4 | %9
w: De- gli'a-|man- ti pen-|sie- * * ri,|ah- * i che sa-|ran- no'i ri- ve- ri- ti|Nu- mi,|s'un cor|_ che si|_ con- su-|
 ^FAAA B4 | d8 | EEEE F2 A2 | z4 e4- | e4 ^GGGA | B4 B2 cd | e2 dc d4 | d2 z e AAAB | G4 G4 | %18
w: mi, nel fo- co lor|de-|ve pe- ri- re'à tor- to,|O|_ dis- pie- ta- t'Ar-|cei- ti che'l pro-|mes- so con- for-|to, ne- ga- sti'à do- lor|mie- i,|
 z4 B4 | B2 B2 e4- | e/d/c/B/ c<A B4 | A2 z A A2 d2- | d2 AG B2 c2 | d2 e2 d4 |[M:2/4] c4 |: %25
w: per-|fi- di lu-||mi, scio- glie- te'oi|_ me, scio- glie- t'il|vot' of- fer-|to,|
 z2 z c |[M:4/4] GGGF A4 | _B4 z2 A2 | AG FE D3 C | C2 G4 ^FE | ^F2 G2 A4 | G4 z D/E/ F/G/A/B/ | %32
w: che|se dal stan- co'a- per-|to, s'en|fug- * * * * g'à|di- te'il tor- men-|ta- to co-|re, stra- * * * * *|
 c4 c4 | C/D/E/F/ G/A/B/c/ d4 | d^FFG A4 | A4 B3 c/d/ | e2 e2 ^c3 d/e/ | f3 e d2 c2 | d2 c2 B4 | %39
w: * le,|stra- * * * * * * * *|le di pen- ti- men-|to per sa- et-|tar- vi, per sa- et-|tar- vi'ha- vra gia|tes' A- mo-|
 A8 :| %40
w: re.|
V:2
 A,,8 | A,,8 | A,,8 |"^b" G,,8 |"^#""^b" D,4 G,,4 |"^#" A,,4 D,2 D,2 | F,6 E,2 |"^6""^6" D,4 C,4 | %8
"^7    6" B,,8 |"^#6" A,,4 G,,4- | G,,2 A,,2 B,,4 | C,4 F,,4 | A,,6 G,,F,, |"^#""^#" E,,4 E,4 | %14
"^#""^#" E,4 E,2 D,2 | C,4 G,4 | G,4 F,4 |"^#""^#" E,4 E,4 | B,,6 ^C,2 |"^#" ^D,4 E,4 | %20
"^4""^3" E,4 E,4 |"^#""^#" A,,4 D,4- | D,4 G,,4- | G,,4 G,,4 |[M:2/4] C,4 |: C,4 |[M:4/4] C,4 F,4 | %27
 _B,,4 D,4 |"^#" A,,4 B,,4 |"^#" C,4 D,4- |"^#" D,4 D,4 | G,,4 D,4 | C,4 C,4 |"^#5" C,4 B,,4 | %34
"^#""^#5" B,,4 A,,4 |"^#" A,,4 G,,2 A,,B,, | C,2 C,2 A,,2 B,,C, | D,4 D,4 |"^#" D,4 E,4 | %39
"^#" A,,8 :| %40

